docs/local/img/block10/score.svg

<svg width="114" height="129" viewBox="0 0 114 129" fill="none" xmlns="http://www.w3.org/2000/svg">
<path d="M106.29 106.244C101.416 98.6277 94.7729 97.8682 94.7729 97.8682C94.7729 97.8682 95.8914 98.8929 96.3923 99.3962C96.6996 99.6976 97.0069 100.023 97.3142 100.339C99.9107 103.091 101.616 105.647 102.682 108.38C103.675 110.921 103.933 113.26 103.472 115.532C103.28 116.508 102.936 117.449 102.452 118.323L92.6527 108.35L97.2927 103.829H94.5271C93.0583 103.829 91.5372 103.829 90.0438 103.829C89.6946 103.858 89.3676 104.009 89.1219 104.254C87.6839 105.508 86.298 106.732 85.1272 107.766C84.4942 108.326 83.8612 108.893 83.2497 109.438L81.9376 110.611L86.1597 114.845L86.7466 114.302C86.848 114.212 86.9525 114.116 87.0539 114.019L87.7269 113.359C88.3691 112.732 89.0328 112.087 89.6781 111.436C91.6509 113.646 93.6278 115.857 95.6087 118.067L98.0332 120.779L99.0688 121.948L99.0872 121.97L99.0503 121.994C97.6357 122.943 95.9833 123.494 94.2721 123.588C92.3361 123.675 90.7813 123.214 89.5245 122.184C88.9099 121.683 88.3291 121.12 87.7607 120.574C87.4718 120.297 87.183 120.02 86.888 119.745C86.7528 119.622 86.6483 119.516 86.5807 119.444C85.9661 118.841 85.6404 118.841 84.9244 119.233C84.8199 119.29 84.697 119.357 84.5403 119.435C84.2109 119.643 83.8216 119.74 83.431 119.712C83.2486 119.671 83.0589 119.673 82.8773 119.717C82.6957 119.762 82.5274 119.848 82.3862 119.968C82.2503 120.101 82.1485 120.263 82.0892 120.442C82.0299 120.621 82.0148 120.811 82.0451 120.996C82.0451 121.108 82.0452 121.18 81.7717 121.433C81.1246 122.049 80.3603 122.533 79.5223 122.859C78.2897 123.327 77.2325 124.153 76.4925 125.228C75.8779 126.086 75.838 127.036 76.3757 127.753C76.6802 128.135 77.1058 128.408 77.5854 128.527C78.065 128.646 78.5713 128.605 79.0245 128.41C80.0478 127.988 81.3292 127.328 82.1865 125.939C82.7087 125.138 83.2879 124.375 83.9196 123.654C83.9647 123.602 84.0207 123.56 84.0838 123.531C84.1469 123.502 84.2156 123.486 84.2853 123.486C84.5294 123.477 84.767 123.564 84.9459 123.727C85.1641 123.932 85.3823 124.136 85.5974 124.344C86.4266 125.178 87.3295 125.939 88.2953 126.617C90.5877 128.118 92.9436 128.868 95.3629 128.868C97.4736 128.837 99.5461 128.311 101.407 127.334C101.914 127.081 102.394 126.78 102.861 126.49L103.048 126.373L104.809 128.326L108.77 124.76L108.321 124.296L107.808 123.76C107.424 123.356 107.058 122.976 106.68 122.6C107.821 120.903 108.566 118.981 108.862 116.97C109.363 113.305 108.499 109.697 106.29 106.244Z" fill="#4363A0"/>
<path d="M34.614 122.724L44 115.61L40.7315 114.94L42.3463 108.789L36.8219 110.002L36.4415 106.992L31.8967 111.342L33.2149 101.425L29.518 103.016L27.0015 97.8682L24.482 103.016L20.7881 101.425L22.1033 111.342L17.5615 106.992L17.1781 110.002L11.6567 108.789L13.2715 114.94L10 115.61L19.386 122.724L17.6874 126.322L26.63 123.591L26.2945 127.868H27.0015H27.7055L27.373 123.591L36.3126 126.322L34.614 122.724Z" fill="#4363A0"/>
<path d="M26.7509 0.0981622C14.9809 0.0981622 9.4809 7.68816 9.4809 19.4582V22.9782H17.5109V19.0182C17.5109 12.0882 20.3709 7.79816 26.5309 7.79816C32.8009 7.79816 35.5509 11.8682 35.5509 19.7882V23.3082C35.5509 30.0182 32.0309 33.6482 26.3109 33.8682H21.2509V41.5682H25.8709C32.3609 41.7882 35.5509 45.4182 35.5509 53.0082V58.9482C35.5509 66.7582 32.8009 70.8282 26.5309 70.8282C20.3709 70.8282 17.5109 66.6482 17.5109 59.7182V53.8882H9.4809V59.1682C9.4809 70.9382 14.9809 78.6382 26.7509 78.6382C38.6309 78.6382 44.1309 70.9382 44.1309 59.1682V53.2282C44.1309 45.5282 41.2709 39.6982 34.7809 37.2782C40.9409 34.9682 44.1309 29.3582 44.1309 21.4382V19.4582C44.1309 7.68816 38.6309 0.0981622 26.7509 0.0981622ZM56.86 25.2882V35.9582H65.11V25.2882H56.86ZM56.86 67.1982V77.8682H65.11V67.1982H56.86ZM88.13 8.56816H110.79V0.868159H80.43L78.34 43.6582H86.37V41.8982C87.14 36.2882 90.33 33.6482 95.06 33.6482C101.22 33.6482 104.08 37.8282 104.08 44.7582V59.7182C104.08 66.6482 101.22 70.8282 95.06 70.8282C88.9 70.8282 86.04 66.6482 86.04 59.7182V53.9982H78.01V59.1682C78.01 70.9382 83.51 78.6382 95.28 78.6382C107.05 78.6382 112.66 70.9382 112.66 59.1682V44.0982C112.66 33.0982 108.26 25.8382 98.36 25.8382C93.19 25.8382 89.34 28.0382 86.92 32.2182L88.13 8.56816Z" fill="#4363A0"/>
</svg>

<svg width="114" height="129" viewBox="0 0 114 129" fill="none" xmlns="http://www.w3.org/2000/svg"><path d="M106.29 106.244c-4.874-7.616-11.517-8.376-11.517-8.376s1.118 1.025 1.62 1.528c.307.302.614.627.921.943 2.597 2.752 4.302 5.308 5.368 8.041.993 2.541 1.251 4.88.79 7.152a9.575 9.575 0 01-1.02 2.791l-9.8-9.973 4.64-4.521h-7.247a1.48 1.48 0 00-.922.425c-1.438 1.254-2.824 2.478-3.995 3.512-.633.56-1.266 1.127-1.877 1.672l-1.312 1.173 4.222 4.234.587-.543c.101-.09.206-.186.307-.283l.673-.66c.642-.627 1.306-1.272 1.951-1.923 1.973 2.21 3.95 4.421 5.93 6.631l2.425 2.712 1.036 1.169.018.022-.037.024a9.516 9.516 0 01-4.778 1.594c-1.936.087-3.49-.374-4.748-1.404-.614-.501-1.195-1.064-1.763-1.61-.29-.277-.578-.554-.873-.829a5.555 5.555 0 01-.307-.301c-.615-.603-.94-.603-1.657-.211-.104.057-.227.124-.384.202-.33.208-.718.305-1.109.277a1.206 1.206 0 00-1.045.256 1.163 1.163 0 00-.341 1.028c0 .112 0 .184-.273.437a6.876 6.876 0 01-2.25 1.426 6.455 6.455 0 00-3.03 2.369c-.614.858-.654 1.808-.116 2.525.304.382.73.655 1.21.774.479.119.985.078 1.439-.117 1.023-.422 2.304-1.082 3.161-2.471a20.246 20.246 0 011.734-2.285.486.486 0 01.365-.168.93.93 0 01.66.241c.22.205.437.409.652.617a20.15 20.15 0 002.698 2.273c2.293 1.501 4.649 2.251 7.068 2.251a13.431 13.431 0 006.044-1.534c.507-.253.987-.554 1.454-.844l.187-.117 1.761 1.953 3.961-3.566-.449-.464-.513-.536c-.384-.404-.75-.784-1.128-1.16a13.651 13.651 0 002.182-5.63c.501-3.665-.363-7.273-2.572-10.726zm-71.676 16.48L44 115.61l-3.269-.67 1.615-6.151-5.524 1.213-.38-3.01-4.545 4.35 1.318-9.917-3.697 1.591-2.517-5.148-2.519 5.148-3.694-1.591 1.315 9.917-4.542-4.35-.383 3.01-5.521-1.213 1.614 6.151-3.271.67 9.386 7.114-1.699 3.598 8.943-2.731-.335 4.277h1.41l-.332-4.277 8.94 2.731-1.699-3.598zM26.75.098c-11.77 0-17.27 7.59-17.27 19.36v3.52h8.03v-3.96c0-6.93 2.86-11.22 9.02-11.22 6.27 0 9.02 4.07 9.02 11.99v3.52c0 6.71-3.52 10.34-9.24 10.56h-5.06v7.7h4.62c6.49.22 9.68 3.85 9.68 11.44v5.94c0 7.81-2.75 11.88-9.02 11.88-6.16 0-9.02-4.18-9.02-11.11v-5.83H9.48v5.28c0 11.77 5.5 19.47 17.27 19.47 11.88 0 17.38-7.7 17.38-19.47v-5.94c0-7.7-2.86-13.53-9.35-15.95 6.16-2.31 9.35-7.92 9.35-15.84v-1.98c0-11.77-5.5-19.36-17.38-19.36zm30.11 25.19v10.67h8.25v-10.67h-8.25zm0 41.91v10.67h8.25v-10.67h-8.25zm31.27-58.63h22.66v-7.7H80.43l-2.09 42.79h8.03v-1.76c.77-5.61 3.96-8.25 8.69-8.25 6.16 0 9.02 4.18 9.02 11.11v14.96c0 6.93-2.86 11.11-9.02 11.11s-9.02-4.18-9.02-11.11v-5.72h-8.03v5.17c0 11.77 5.5 19.47 17.27 19.47s17.38-7.7 17.38-19.47v-15.07c0-11-4.4-18.26-14.3-18.26-5.17 0-9.02 2.2-11.44 6.38l1.21-23.65z" fill="#4363A0"/></svg>
